X: 2 % start of header
T:Torus:Taurus Tune
T:5 of 100,000,000,000,000
C: (Sid.)
O: Jeff Minter
R:Procedurally Generated
L: 1/8
K: D % scale: C major
V:1 name="Voice 1"
C,16    |     |     |     | F,16    |     |     |     | C,16    |     |     |     | ^D,16    |     |     |     | :|
V:2 name="Voice 2"
C,4    | F,4    | C,4    | ^D,4    | F,4    | ^A,4    | F,4    | ^G,4    | C,4    | F,4    | C,4    | ^D,4    | ^D,4    | ^G,4    | ^D,4    | ^F,4    | :|
V:3 name="Voice 3"
C,1F,1C,1^D,1|F,1^A,1F,1^G,1|C,1F,1C,1^D,1|^D,1^G,1^D,1^F,1|F,1^A,1F,1^G,1|^A,1^D1^A,1^C1|F,1^A,1F,1^G,1|^G,1^C1^G,1B,1|C,1F,1C,1^D,1|F,1^A,1F,1^G,1|C,1F,1C,1^D,1|^D,1^G,1^D,1^F,1|^D,1^G,1^D,1^F,1|^G,1^C1^G,1B,1|^D,1^G,1^D,1^F,1|^F,1B,1^F,1A,1|:|
